src/asset/img/icon/item_category/power.svg

<svg xmlns:xlink="http://www.w3.org/1999/xlink" height="21.9" width="22" xmlns="http://www.w3.org/2000/svg"><use height="84.8" transform="matrix(.2587 0 0 .2583 -.008 -.024)" width="85.05" xlink:href="#a"/><defs><use height="84.8" width="85.05" xlink:href="#b" id="a"/><g id="b" fill="#3f5a75" fill-rule="evenodd"><path d="m45 9.85-1.4-.2q1.8 2 2 4.75.8 5.2-2 10.6-.6 1-3.4 1.8-1.75-8.2-5.35-11.6-6-5.35-11.8-8.15-4.8-2.2-7.55-2.2-1.8 0-3.4 1l-1 .8 1.6.2q2 .4 3.4 1.4 4.35 3 6.75 8.35.8 1.8-2.4 5.8h-.8Q9.7 19 3.7 21.2q-7.4 2.8-12.55 7-4 3-5.4 5.8-1.4 2.6-.4 4.55 1.2-2.35 3.6-3.75Q-6.3 32.2-.5 32.6q1.4 0 2.8 2.6-6.6 4.75-8.4 9.35-2.55 7.6-2.95 14.2-.2 4.95 1 7.55 1 2.8 3.15 3.4-1-2.4-.4-5.2 1.2-5.35 5-9.35 1-1 4-.6-.8 8.55 1.6 12.55 3.8 7 8.8 11.4 3.55 3.4 6.35 4.4l4.8-.2q-2.6-.8-4.4-3.2-3.2-4.4-3.8-10 0-1.6 2-3.2 6.4 6 10.8 6.8 7.6 1.6 14.35.8 4.8-.6 7.6-2 2.4-1.6 2.8-3.8-2.4 1.4-5.2 1.2-5.4-.4-9.95-3.6-1.2-.8-1.2-3.6 8.55-.8 12.15-3.75 6.2-4.8 10-10.2 2.8-4.4 3.15-7.2.2-1.8-.35-3.4l-.6-1.15q-.4 2.55-2.4 4.55-3.6 4-9.2 5.4-1.6.4-3.6-1.6 5-7 5-11.55.4-8-1.4-14.2-1.2-5-3.2-7.15-1.2-1.4-2.8-2m5.6.4q6.2 7.35 5.6 23.35 1.6-1.6 2.8-1.8l1.6-.2q2.2 0 3.75 1.6 3.4 3.4 2.2 8.75-.6 3.8-3.75 8.6-3.8 5.8-10.2 10.95h.2q1.6 0 3 .8 2.8 2 2.4 5.2-.8 4.6-5.2 7.4-5 3-14.15 3l-9.8-1q1.2 1.6 1.4 3 .4 3.35-2.4 4.95-1.6 1.6-5.4 1.6-1.8 0-3.6-.6Q9.9 82.9 1.9 68.9q0 1.6-1.4 3-1.4 1.8-3.8 1.8l-1.4-.2q-4.35-1.2-6.55-6.2-1.6-3.6-1.4-9.35.2-7 3-14.8-1.4 1-2.8 1h-.2q-3.6-.4-4.8-3.2-1.8-4.35.6-8.95 1.8-3.4 6.4-7.2 5.55-4.4 13.35-7.2 2.2-1 6.4-1l7.2.6-2.8-2.6-2-.6q-3.4-.4-4.6-3.15-1.4-3 .6-5.6 3.2-3.6 8.2-3.6 9.55 0 21.55 11-.2-1.6.4-3.4 1.6-3 4.75-3 4.6 0 8 4" fill-opacity=".902" transform="translate(18.2 -1.65)"/><path d="M45 9.85q1.6.6 2.8 2Q49.8 14 51 19q1.8 6.2 1.4 14.2 0 4.55-5 11.55 2 2 3.6 1.6 5.6-1.4 9.2-5.4 2-2 2.4-4.55l.6 1.15q.55 1.6.35 3.4-.35 2.8-3.15 7.2-3.8 5.4-10 10.2-3.6 2.95-12.15 3.75 0 2.8 1.2 3.6 4.55 3.2 9.95 3.6 2.8.2 5.2-1.2-.4 2.2-2.8 3.8-2.8 1.4-7.6 2-6.75.8-14.35-.8-4.4-.8-10.8-6.8-2 1.6-2 3.2.6 5.6 3.8 10 1.8 2.4 4.4 3.2l-4.8.2q-2.8-1-6.35-4.4-5-4.4-8.8-11.4-2.4-4-1.6-12.55-3-.4-4 .6-3.8 4-5 9.35-.6 2.8.4 5.2-2.15-.6-3.15-3.4-1.2-2.6-1-7.55.4-6.6 2.95-14.2 1.8-4.6 8.4-9.35-1.4-2.6-2.8-2.6-5.8-.4-10.55 2.2-2.4 1.4-3.6 3.75-1-1.95.4-4.55 1.4-2.8 5.4-5.8 5.15-4.2 12.55-7 6-2.2 15.95 1.2h.8q3.2-4 2.4-5.8-2.4-5.35-6.75-8.35-1.4-1-3.4-1.4l-1.6-.2 1-.8q1.6-1 3.4-1 2.75 0 7.55 2.2 5.8 2.8 11.8 8.15 3.6 3.4 5.35 11.6Q43 26 43.6 25q2.8-5.4 2-10.6-.2-2.75-2-4.75l1.4.2M19.25 30.4q-4.6-7.5-10.35-1-3.95 4.1 2.15 9.1l-.15.4q-9.75-2.05-8.4 7.05.8 6.1 9.2 4.05l.05.1Q3 56.4 11.1 61.5q5.4 3.4 9.15-4.5-.4 4.7 1.4 6.9 2.2 2.6 6.8 1 5.95-1.7 2.7-9.25l.25-.15q7.4 6.9 11-1.55 2.15-5.4-4.55-7.7l.1-.7q8.9-1.5 4.85-9.55-2.4-4.7-8.1-1.7l-.65-.7-.1-.1q3.7-7.35-4.5-9.3-5.4-1.05-6.7 5.45l-3.5.75" fill-opacity=".471" transform="translate(18.2 -1.65)"/><path d="M19.25 30.4q-2.75 1-4.95 3.2-2.25 2.2-3.25 4.9-6.1-5-2.15-9.1 5.75-6.5 10.35 1m-8.35 8.5q-.8 2.2-.8 4.65 0 3.55 1.6 6.45-8.4 2.05-9.2-4.05-1.35-9.1 8.4-7.05m.85 11.2q.95 1.75 2.55 3.25 2.65 2.7 5.95 3.65l3.8.55q3.9 0 7.1-1.9 3.25 7.55-2.7 9.25-4.6 1.6-6.8-1-1.8-2.2-1.4-6.9-3.75 7.9-9.15 4.5-8.1-5.1.65-11.4m19.65 5.4 2.65-2.15q3.05-3.05 3.8-7.1 6.7 2.3 4.55 7.7-3.6 8.45-11 1.55m6.55-9.95.1-2q0-5.3-3.35-9.25 5.7-3 8.1 1.7 4.05 8.05-4.85 9.55m-4-12.05q-4.15-3.9-9.9-3.9l-1.3.05q1.3-6.5 6.7-5.45 8.2 1.95 4.5 9.3" fill-opacity=".243" transform="translate(18.2 -1.65)"/><path d="M11.05 38.5q1-2.7 3.25-4.9 2.2-2.2 4.95-3.2l3.5-.75 1.3-.05q5.75 0 9.9 3.9l.1.1.65.7q3.35 3.95 3.35 9.25l-.1 2-.1.7q-.75 4.05-3.8 7.1L31.4 55.5l-.25.15q-3.2 1.9-7.1 1.9l-3.8-.55q-3.3-.95-5.95-3.65-1.6-1.5-2.55-3.25l-.05-.1q-1.6-2.9-1.6-6.45 0-2.45.8-4.65l.15-.4m4.25 3.85q1.4 1.8 3.95 1.4 9-.8 3.2-7.35-5.75-6.6-7.75 1.75-.6 2.6.6 4.2" fill-opacity=".192" transform="translate(18.2 -1.65)"/></g></defs></svg>

<?xml version="1.0" encoding="UTF-8" standalone="no"?>
<svg xmlns:xlink="http://www.w3.org/1999/xlink" height="21.9px" width="22.0px" xmlns="http://www.w3.org/2000/svg">
  <g transform="matrix(1.0, 0.0, 0.0, 1.0, -1.5, -1.55)">
    <use height="84.8" transform="matrix(0.2587, 0.0, 0.0, 0.2583, 1.4917, 1.5262)" width="85.05" xlink:href="#sprite0"/>
  </g>
  <defs>
    <g id="sprite0" transform="matrix(1.0, 0.0, 0.0, 1.0, 18.2, -1.65)">
      <use height="84.8" transform="matrix(1.0, 0.0, 0.0, 1.0, -18.2, 1.65)" width="85.05" xlink:href="#shape0"/>
    </g>
    <g id="shape0" transform="matrix(1.0, 0.0, 0.0, 1.0, 18.2, -1.65)">
      <path d="M45.0 9.85 L43.6 9.65 Q45.4 11.65 45.6 14.4 46.4 19.6 43.6 25.0 43.0 26.0 40.2 26.8 38.45 18.6 34.85 15.2 28.85 9.85 23.05 7.05 18.25 4.85 15.5 4.85 13.7 4.85 12.1 5.85 L11.1 6.65 12.7 6.85 Q14.7 7.25 16.1 8.25 20.45 11.25 22.85 16.6 23.65 18.4 20.45 22.4 L19.65 22.4 Q9.7 19.0 3.7 21.2 -3.7 24.0 -8.85 28.2 -12.85 31.2 -14.25 34.0 -15.65 36.6 -14.65 38.55 -13.45 36.2 -11.05 34.8 -6.3 32.2 -0.5 32.6 0.9 32.6 2.3 35.2 -4.3 39.95 -6.1 44.55 -8.65 52.15 -9.05 58.75 -9.25 63.7 -8.05 66.3 -7.05 69.1 -4.9 69.7 -5.9 67.3 -5.3 64.5 -4.1 59.15 -0.3 55.15 0.7 54.15 3.7 54.55 2.9 63.1 5.3 67.1 9.1 74.1 14.1 78.5 17.65 81.9 20.45 82.9 L25.25 82.7 Q22.65 81.9 20.85 79.5 17.65 75.1 17.05 69.5 17.05 67.9 19.05 66.3 25.45 72.3 29.85 73.1 37.45 74.7 44.2 73.9 49.0 73.3 51.8 71.9 54.2 70.3 54.6 68.1 52.2 69.5 49.4 69.3 44.0 68.9 39.45 65.7 38.25 64.9 38.25 62.1 46.8 61.3 50.4 58.35 56.6 53.55 60.4 48.15 63.2 43.75 63.55 40.95 63.75 39.15 63.2 37.55 L62.6 36.4 Q62.2 38.95 60.2 40.95 56.6 44.95 51.0 46.35 49.4 46.75 47.4 44.75 52.4 37.75 52.4 33.2 52.8 25.2 51.0 19.0 49.8 14.0 47.8 11.85 46.6 10.45 45.0 9.85 M50.6 10.25 Q56.8 17.6 56.2 33.6 57.8 32.0 59.0 31.8 L60.6 31.6 Q62.8 31.6 64.35 33.2 67.75 36.6 66.55 41.95 65.95 45.75 62.8 50.55 59.0 56.35 52.6 61.5 L52.8 61.5 Q54.4 61.5 55.8 62.3 58.6 64.3 58.2 67.5 57.4 72.1 53.0 74.9 48.0 77.9 38.85 77.9 L29.05 76.9 Q30.25 78.5 30.45 79.9 30.85 83.25 28.05 84.85 26.45 86.45 22.65 86.45 20.85 86.45 19.05 85.85 9.9 82.9 1.9 68.9 1.9 70.5 0.5 71.9 -0.9 73.7 -3.3 73.7 L-4.7 73.5 Q-9.05 72.3 -11.25 67.3 -12.85 63.7 -12.65 57.95 -12.45 50.95 -9.65 43.15 -11.05 44.15 -12.45 44.15 L-12.65 44.15 Q-16.25 43.75 -17.45 40.95 -19.25 36.6 -16.85 32.0 -15.05 28.6 -10.45 24.8 -4.9 20.4 2.9 17.6 5.1 16.6 9.3 16.6 L16.5 17.2 13.7 14.6 11.7 14.0 Q8.3 13.6 7.1 10.85 5.7 7.85 7.7 5.25 10.9 1.65 15.9 1.65 25.45 1.65 37.45 12.65 37.25 11.05 37.85 9.25 39.45 6.25 42.6 6.25 47.2 6.25 50.6 10.25" fill="#3f5a75" fill-opacity="0.9019608" fill-rule="evenodd" stroke="none"/>
      <path d="M45.0 9.85 Q46.6 10.45 47.8 11.85 49.8 14.0 51.0 19.0 52.8 25.2 52.4 33.2 52.4 37.75 47.4 44.75 49.4 46.75 51.0 46.35 56.6 44.95 60.2 40.95 62.2 38.95 62.6 36.4 L63.2 37.55 Q63.75 39.15 63.55 40.95 63.2 43.75 60.4 48.15 56.6 53.55 50.4 58.35 46.8 61.3 38.25 62.1 38.25 64.9 39.45 65.7 44.0 68.9 49.4 69.3 52.2 69.5 54.6 68.1 54.2 70.3 51.8 71.9 49.0 73.3 44.2 73.9 37.45 74.7 29.85 73.1 25.45 72.3 19.05 66.3 17.05 67.9 17.05 69.5 17.65 75.1 20.85 79.5 22.65 81.9 25.25 82.7 L20.45 82.9 Q17.65 81.9 14.1 78.5 9.1 74.1 5.3 67.1 2.9 63.1 3.7 54.55 0.7 54.15 -0.3 55.15 -4.1 59.15 -5.3 64.5 -5.9 67.3 -4.9 69.7 -7.05 69.1 -8.05 66.3 -9.25 63.7 -9.05 58.75 -8.65 52.15 -6.1 44.55 -4.3 39.95 2.3 35.2 0.9 32.6 -0.5 32.6 -6.3 32.2 -11.05 34.8 -13.45 36.2 -14.65 38.55 -15.65 36.6 -14.25 34.0 -12.85 31.2 -8.85 28.2 -3.7 24.0 3.7 21.2 9.7 19.0 19.65 22.4 L20.45 22.4 Q23.65 18.4 22.85 16.6 20.45 11.25 16.1 8.25 14.7 7.25 12.7 6.85 L11.1 6.65 12.1 5.85 Q13.7 4.85 15.5 4.85 18.25 4.85 23.05 7.05 28.85 9.85 34.85 15.2 38.45 18.6 40.2 26.8 43.0 26.0 43.6 25.0 46.4 19.6 45.6 14.4 45.4 11.65 43.6 9.65 L45.0 9.85 M19.25 30.4 Q14.65 22.9 8.9 29.4 4.95 33.5 11.05 38.5 L10.9 38.9 Q1.15 36.85 2.5 45.95 3.3 52.05 11.7 50.0 L11.75 50.1 Q3.0 56.4 11.1 61.5 16.5 64.9 20.25 57.0 19.85 61.7 21.65 63.9 23.85 66.5 28.45 64.9 34.4 63.2 31.15 55.65 L31.4 55.5 Q38.8 62.4 42.4 53.95 44.55 48.55 37.85 46.25 L37.95 45.55 Q46.85 44.05 42.8 36.0 40.4 31.3 34.7 34.3 L34.05 33.6 33.95 33.5 Q37.65 26.15 29.45 24.2 24.05 23.15 22.75 29.65 L19.25 30.4" fill="#3f5a75" fill-opacity="0.47058824" fill-rule="evenodd" stroke="none"/>
      <path d="M19.25 30.4 Q16.5 31.4 14.3 33.6 12.05 35.8 11.05 38.5 4.95 33.5 8.9 29.4 14.65 22.9 19.25 30.4 M10.9 38.9 Q10.1 41.1 10.1 43.55 10.1 47.1 11.7 50.0 3.3 52.05 2.5 45.95 1.15 36.85 10.9 38.9 M11.75 50.1 Q12.7 51.85 14.3 53.35 16.95 56.05 20.25 57.0 L24.05 57.55 Q27.95 57.55 31.15 55.65 34.4 63.2 28.45 64.9 23.85 66.5 21.65 63.9 19.85 61.7 20.25 57.0 16.5 64.9 11.1 61.5 3.0 56.4 11.75 50.1 M31.4 55.5 L34.05 53.35 Q37.1 50.3 37.85 46.25 44.55 48.55 42.4 53.95 38.8 62.4 31.4 55.5 M37.95 45.55 L38.05 43.55 Q38.05 38.25 34.7 34.3 40.4 31.3 42.8 36.0 46.85 44.05 37.95 45.55 M33.95 33.5 Q29.8 29.6 24.05 29.6 L22.75 29.65 Q24.05 23.15 29.45 24.2 37.65 26.15 33.95 33.5" fill="#3f5a75" fill-opacity="0.24313726" fill-rule="evenodd" stroke="none"/>
      <path d="M11.05 38.5 Q12.05 35.8 14.3 33.6 16.5 31.4 19.25 30.4 L22.75 29.65 24.05 29.6 Q29.8 29.6 33.95 33.5 L34.05 33.6 34.7 34.3 Q38.05 38.25 38.05 43.55 L37.95 45.55 37.85 46.25 Q37.1 50.3 34.05 53.35 L31.4 55.5 31.15 55.65 Q27.95 57.55 24.05 57.55 L20.25 57.0 Q16.95 56.05 14.3 53.35 12.7 51.85 11.75 50.1 L11.7 50.0 Q10.1 47.1 10.1 43.55 10.1 41.1 10.9 38.9 L11.05 38.5 M15.3 42.35 Q16.7 44.15 19.25 43.75 28.25 42.95 22.45 36.4 16.7 29.8 14.7 38.15 14.1 40.75 15.3 42.35" fill="#3f5a75" fill-opacity="0.19215687" fill-rule="evenodd" stroke="none"/>
    </g>
  </defs>
</svg>
